com_jlsitemap/media/icons/delete.svg

<svg version="1.1" xmlns="http://www.w3.org/2000/svg" width="100" height="100" viewBox="0 0 100 100">
<title>delete</title>
<path d="M30 10l10-10h20l10 10h20v10h-80v-10h20zM15 30h70l-5 70h-60l-5-70zM40 40v50h5v-50h-5zM55 40v50h5v-50h-5z"></path>
</svg>

<svg xmlns="http://www.w3.org/2000/svg" width="100" height="100" viewBox="0 0 100 100"><path d="M30 10L40 0h20l10 10h20v10H10V10h20zM15 30h70l-5 70H20l-5-70zm25 10v50h5V40h-5zm15 0v50h5V40h-5z"/></svg>
